img/assets/logo/full_color-dark.svg

<?xml version="1.0" encoding="UTF-8" standalone="no"?>
<!DOCTYPE svg PUBLIC "-//W3C//DTD SVG 1.1//EN" "http://www.w3.org/Graphics/SVG/1.1/DTD/svg11.dtd">
<svg width="100%" height="100%" viewBox="0 0 915 806" version="1.1" xmlns="http://www.w3.org/2000/svg" xmlns:xlink="http://www.w3.org/1999/xlink" xml:space="preserve" xmlns:serif="http://www.serif.com/" style="fill-rule:evenodd;clip-rule:evenodd;stroke-linejoin:round;stroke-miterlimit:2;">
    <g transform="matrix(1,0,0,1,0,-855)">
        <g id="full_color-dark" transform="matrix(1,0,0,1,-57.9493,680.61)">
            <rect x="58.591" y="174.642" width="914.128" height="805.252" style="fill-opacity:0;"/>
            <clipPath id="_clip1">
                <rect x="58.591" y="174.642" width="914.128" height="805.252"/>
            </clipPath>
            <g clip-path="url(#_clip1)">
                <g id="Letter-B" serif:id="Letter B" transform="matrix(1,0,0,1,0.590958,0.6417)">
                    <path d="M559.704,340.628L559.704,798.042L417.263,798.042L417.263,655.429L559.704,340.628ZM637.719,850.042L637.719,174.642L739.784,174.642C839.892,174.642 921.167,255.264 921.167,354.568C921.167,388.382 911.743,420.029 895.361,447.066C942.839,489.379 972.719,550.744 972.719,618.978C972.719,746.506 868.345,850.042 739.784,850.042L637.719,850.042Z" style="fill:rgb(250,250,250);"/>
                </g>
                <g id="Letter-R" serif:id="Letter R" transform="matrix(1,0,0,1,0.590958,0.6417)">
                    <path d="M611.704,225.706L611.704,850.042L365.263,850.042L365.263,770.351L391.263,712.89L391.263,824.042L585.704,824.042L585.704,283.167L611.704,225.706ZM166.449,548.602C102.443,515.837 58.591,449.212 58.591,372.426C58.591,263.266 147.215,174.642 256.375,174.642L335.659,174.642L166.449,548.602ZM154.916,511.021L295.356,200.642L256.375,200.642C161.565,200.642 84.591,277.616 84.591,372.426C84.591,429.296 112.291,479.745 154.916,511.021ZM300.666,850.042L58.591,850.042L364.196,174.642L606.272,174.642L300.666,850.042ZM565.97,200.642L380.97,200.642L98.893,824.042L283.893,824.042L565.97,200.642Z" style="fill:rgb(255,81,1);"/>
                </g>
                <g id="Name" transform="matrix(0.946753,0,0,0.946753,5.00869,61.6735)">
                    <path d="M120.09,969.97L112.63,969.97L93.7,943.44C91.41,943.67 89,943.9 86.36,943.9L63.76,943.9L63.76,969.97L57.22,969.97L57.22,938.16L86.35,938.16C103.1,938.16 112.16,930.24 112.16,916.8C112.16,903.36 103.1,895.44 86.35,895.44L57.22,895.44L57.22,889.58L86.35,889.58C106.54,889.58 118.81,899.69 118.81,916.8C118.81,929.55 111.93,938.39 100.11,941.95L120.07,969.97L120.09,969.97ZM133.63,969.97L126.63,969.97L163.56,889.57L170.1,889.57L207.03,969.97L199.92,969.97L166.77,896.69L133.62,969.97L133.63,969.97ZM227.79,929.77L227.79,964.11L252.79,964.11C275.16,964.11 289.38,949.87 289.38,929.77C289.38,909.67 275.16,895.43 252.79,895.43L221.25,895.43L221.25,889.57L253.25,889.57C278.83,889.57 296.03,906.22 296.03,929.77C296.03,953.32 278.82,969.97 253.25,969.97L221.25,969.97L221.25,929.77L227.79,929.77ZM308.43,929.77C308.43,906.34 326.32,889 350.3,889C374.28,889 392.17,906.34 392.17,929.77C392.17,953.2 374.28,970.54 350.3,970.54C326.32,970.54 308.43,953.2 308.43,929.77ZM385.51,929.77C385.51,909.79 370.48,894.97 350.3,894.97C330.12,894.97 315.09,909.79 315.09,929.77C315.09,949.75 330.12,964.57 350.3,964.57C370.48,964.57 385.51,949.75 385.51,929.77ZM404.08,959.86L406.95,954.81C412.46,960.44 422.66,964.8 433.45,964.8C449.16,964.8 456.05,958.02 456.05,949.52C456.05,925.98 406.16,940.22 406.16,910.47C406.16,899.1 414.99,888.99 434.95,888.99C443.9,888.99 453.19,891.63 459.38,896.23L456.97,901.51C450.2,896.92 442.17,894.73 434.95,894.73C419.7,894.73 412.81,901.74 412.81,910.35C412.81,933.89 462.7,919.88 462.7,949.17C462.7,960.66 453.52,970.53 433.45,970.53C421.52,970.53 409.94,966.17 404.09,959.85L404.08,959.86ZM482.19,969.97L482.19,889.57L488.73,889.57L488.73,964.11L534.61,964.11L534.61,969.97L482.19,969.97ZM543.44,969.97L536.44,969.97L573.37,889.57L579.91,889.57L616.84,969.97L609.73,969.97L576.58,896.69L543.43,969.97L543.44,969.97ZM656.09,969.97L649.54,969.97L613.75,889.57L620.98,889.57L652.87,961.58L684.99,889.57L691.76,889.57L656.09,969.97ZM735.79,889.57L769.51,889.57C786.94,889.57 797.38,896.92 797.38,910.13C797.38,919.55 792.1,925.75 784.3,928.51C795.31,930.69 801.62,937.58 801.62,948.61C801.62,962.28 791.76,969.97 771.8,969.97L735.78,969.97L735.78,964.34L771.8,964.34C786.83,964.34 794.97,959.4 794.97,948.15C794.97,936.9 786.83,931.96 771.8,931.96L735.78,931.96L735.78,926.45L769.27,926.45C782.8,926.45 790.72,921.17 790.72,910.83C790.72,900.49 782.81,895.21 769.27,895.21L735.78,895.21L735.78,889.58L735.79,889.57ZM822.04,969.97L822.04,889.57L828.58,889.57L828.58,964.11L874.46,964.11L874.46,969.97L822.04,969.97ZM889.25,888.31L943.27,888.31L943.27,894.17L889.25,894.17L889.25,888.31ZM889.25,926.21L943.27,926.21L943.27,932.07L889.25,932.07L889.25,926.21ZM889.25,969.97L943.27,969.97L943.27,964.11L889.25,964.11L889.25,969.97ZM990.53,969.97L983.88,969.97L983.88,942.29L951.65,889.57L958.76,889.57L987.32,936.32L1015.99,889.57L1022.76,889.57L990.53,942.29L990.53,969.97Z" style="fill:rgb(250,250,250);fill-rule:nonzero;"/>
                </g>
            </g>
        </g>
    </g>
</svg>

<?xml version="1.0" encoding="UTF-8"?>
<svg id="LOGO_Rebranding_2024_" data-name="LOGO (Rebranding 2024)" xmlns="http://www.w3.org/2000/svg" viewBox="0 0 1080 1080">
  <defs>
    <style>
      .cls-1 {
        fill: #1c1c1d;
      }

      .cls-1, .cls-2 {
        stroke-width: 0px;
      }

      .cls-2 {
        fill: #f26322;
      }
    </style>
  </defs>
  <g id="full_color-dark">
    <g id="Logo">
      <path class="cls-1" d="M435.92,769.63h150.24v-464.2l-150.24,332.71v131.48ZM1022.76,582.44c0,134.62-113.26,243.75-252.97,243.75h-98.04V111.55h98.04c110.55,0,200.18,86.36,200.18,192.87,0,36.23-10.37,70.13-28.41,99.09,49.94,44.51,81.2,108.2,81.2,178.93Z"/>
      <path class="cls-2" d="M296.73,144.46l-139.34,308.55c-15.06-12.03-28.09-26.55-38.5-43.01-17.44-27.6-26.66-59.53-26.66-92.37,0-46.26,18.01-89.74,50.72-122.45,32.71-32.71,76.19-50.72,122.45-50.72h31.32M350.93,109.46h-85.53c-114.97,0-208.17,93.2-208.17,208.17,0,81.66,47.03,152.36,115.49,186.46L350.93,109.46h0ZM596.76,140.02l-296.67,656.97H104.57L401.24,140.02h195.52M644.08,109.46h-262.57L57.24,827.55h262.57L644.08,109.46h0ZM613.82,244.17v553.12h-177.91v30.26h208.17V177.16l-30.26,67.01Z"/>
    </g>
    <g>
      <path class="cls-1" d="M120.09,969.97h-7.46l-18.93-26.53c-2.29.23-4.7.46-7.34.46h-22.6v26.07h-6.54v-31.81h29.13c16.75,0,25.81-7.92,25.81-21.36s-9.06-21.36-25.81-21.36h-29.13v-5.86h29.13c20.19,0,32.46,10.11,32.46,27.22,0,12.75-6.88,21.59-18.7,25.15l19.96,28.02Z"/>
      <path class="cls-1" d="M133.63,969.97h-7l36.93-80.4h6.54l36.93,80.4h-7.11l-33.15-73.28-33.15,73.28Z"/>
      <path class="cls-1" d="M227.79,929.77v34.34h25c22.37,0,36.59-14.24,36.59-34.34s-14.22-34.34-36.59-34.34h-31.54v-5.86h32c25.58,0,42.78,16.65,42.78,40.2s-17.21,40.2-42.78,40.2h-32v-40.2h6.54Z"/>
      <path class="cls-1" d="M308.43,929.77c0-23.43,17.89-40.77,41.87-40.77s41.87,17.34,41.87,40.77-17.89,40.77-41.87,40.77-41.87-17.34-41.87-40.77ZM385.51,929.77c0-19.98-15.03-34.8-35.21-34.8s-35.21,14.82-35.21,34.8,15.03,34.8,35.21,34.8,35.21-14.82,35.21-34.8Z"/>
      <path class="cls-1" d="M404.08,959.86l2.87-5.05c5.51,5.63,15.71,9.99,26.5,9.99,15.71,0,22.6-6.78,22.6-15.28,0-23.54-49.89-9.3-49.89-39.05,0-11.37,8.83-21.48,28.79-21.48,8.95,0,18.24,2.64,24.43,7.24l-2.41,5.28c-6.77-4.59-14.8-6.78-22.02-6.78-15.25,0-22.14,7.01-22.14,15.62,0,23.54,49.89,9.53,49.89,38.82,0,11.49-9.18,21.36-29.25,21.36-11.93,0-23.51-4.36-29.36-10.68Z"/>
      <path class="cls-1" d="M482.19,969.97v-80.4h6.54v74.54h45.88v5.86h-52.42Z"/>
      <path class="cls-1" d="M543.44,969.97h-7l36.93-80.4h6.54l36.93,80.4h-7.11l-33.15-73.28-33.15,73.28Z"/>
      <path class="cls-1" d="M656.08,969.97h-6.54l-35.79-80.4h7.23l31.89,72.01,32.12-72.01h6.77l-35.67,80.4Z"/>
      <path class="cls-1" d="M735.79,889.57h33.72c17.43,0,27.87,7.35,27.87,20.56,0,9.42-5.28,15.62-13.08,18.38,11.01,2.18,17.32,9.07,17.32,20.1,0,13.67-9.86,21.36-29.82,21.36h-36.02v-5.63h36.02c15.03,0,23.17-4.94,23.17-16.19s-8.14-16.19-23.17-16.19h-36.02v-5.51h33.49c13.53,0,21.45-5.28,21.45-15.62s-7.91-15.62-21.45-15.62h-33.49v-5.63Z"/>
      <path class="cls-1" d="M822.04,969.97v-80.4h6.54v74.54h45.88v5.86h-52.42Z"/>
      <path class="cls-1" d="M889.25,888.31h54.02v5.86h-54.02v-5.86ZM889.25,926.21h54.02v5.86h-54.02v-5.86ZM889.25,969.97h54.02v-5.86h-54.02v5.86Z"/>
      <path class="cls-1" d="M990.53,969.97h-6.65v-27.68l-32.23-52.72h7.11l28.56,46.75,28.67-46.75h6.77l-32.23,52.72v27.68Z"/>
    </g>
  </g>
</svg>
